svg/silence.svg

<?xml version="1.0" encoding="UTF-8"?>
<svg xmlns="http://www.w3.org/2000/svg" xmlns:xlink="http://www.w3.org/1999/xlink" width="32" height="32" viewBox="0 0 32 32">
<path fill-rule="nonzero" fill="rgb(100%, 35.294119%, 47.450981%)" fill-opacity="1" d="M 31 16 C 31 24.285156 24.285156 31 16 31 C 7.714844 31 1 24.285156 1 16 C 1 7.714844 7.714844 1 16 1 C 24.285156 1 31 7.714844 31 16 M 31 16 "/>
<path fill-rule="nonzero" fill="rgb(100%, 100%, 100%)" fill-opacity="1" d="M 28 16 C 28 22.628906 22.628906 28 16 28 C 9.371094 28 4 22.628906 4 16 C 4 9.371094 9.371094 4 16 4 C 22.628906 4 28 9.371094 28 16 M 28 16 "/>
<path fill-rule="nonzero" fill="rgb(20%, 20%, 20%)" fill-opacity="1" d="M 21 16 C 20.101562 14.449219 20.25 13.050781 20.25 12 C 20.25 9.800781 19 8.449219 17.199219 7.898438 C 17.199219 7.199219 16.800781 6.601562 16 6.601562 C 15.199219 6.601562 14.800781 7.148438 14.800781 7.898438 C 13 8.449219 11.75 9.800781 11.75 12 C 11.75 13.050781 11.898438 14.449219 11 16 C 10.398438 17.101562 9.050781 17.351562 9.050781 20.550781 L 23 20.550781 C 22.949219 17.300781 21.648438 17.101562 21 16 M 16.398438 21.449219 C 16.398438 22.648438 15.398438 23.648438 14.199219 23.648438 C 12.988281 23.636719 12.011719 22.660156 12 21.449219 Z M 16.398438 21.449219 "/>
<path fill-rule="nonzero" fill="rgb(100%, 35.294119%, 47.450981%)" fill-opacity="1" d="M 4.613281 6.738281 L 6.738281 4.617188 L 27.382812 25.261719 L 25.261719 27.382812 Z M 4.613281 6.738281 "/>
</svg>

<svg role="img" viewBox="0 0 32 32" xmlns="http://www.w3.org/2000/svg"><path d="M31 16c0 8.285-6.715 15-15 15S1 24.285 1 16 7.715 1 16 1s15 6.715 15 15m0 0" fill="rgb(100%, 35.294119%, 47.450981%)"/><path d="M28 16c0 6.629-5.371 12-12 12S4 22.629 4 16 9.371 4 16 4s12 5.371 12 12m0 0" fill="rgb(100%, 100%, 100%)"/><path d="M21 16c-.898-1.55-.75-2.95-.75-4 0-2.2-1.25-3.55-3.05-4.102 0-.699-.4-1.296-1.2-1.296s-1.2.546-1.2 1.296C13 8.45 11.75 9.801 11.75 12c0 1.05.148 2.45-.75 4-.602 1.102-1.95 1.352-1.95 4.55H23c-.05-3.25-1.352-3.448-2-4.55m-4.602 5.45c0 1.198-1 2.198-2.199 2.198A2.22 2.22 0 0 1 12 21.45Zm0 0" fill="rgb(20%, 20%, 20%)"/><path d="m4.613 6.738 2.125-2.12 20.645 20.644-2.121 2.12Zm0 0" fill="rgb(100%, 35.294119%, 47.450981%)"/></svg>
